!!!OTL-incipit: Das Madl von der Gmaa hat schoene weisse Baa
!!!ARE: Europa, Mitteleuropa, Deutschland, Ober - Franken, Langenreuth
!!!SCT: V0006B
!!!TXL: @@BAR
!!!YEM: Copyright 1995, estate of Helmut Schaffrath.
**kern	**text
*ICvox	*
*M2/4	*
*k[f#c#]	*
*D:	*
{8f#	Das
=1	=1
8b	Ma-
8a	-dl
8f#	von
8a	der
=2	=2
4f#	Gmaa
8r}	.
{8f#	hat
=3	=3
8.b	schö-
16a	-ne
8f#	wei-
8a	-ße
=4	=4
4g	Baa,
8r}	.
{8a	hat
=5	=5
8.a	schö-
16a	-ne
8a	wei-
8f#	-ße
=6	=6
8g	Ket-
8cc#	-ta-
8cc#}	-la
{8cc#	und
=7	=7
8a	au-
8a	-fn
8g	Orsch
8e	a
=8	=8
8f#	Blät-
8dd	-ta-
8dd}	-la.
==	==
!!!AGN: Liebes - Lied
!! Bemerkung: "wird offenbar mit Schlussbildung wiederholt"
!!!ONB: ESAC (Essen Associative Code) Database: VARIANT
!!!AMT: simple duple
!!!AIN: vox
!!!EED: Helmut Schaffrath
!!!EEV: 1.0
!!!source: Heigl, U.; Liertz, M. J. et al.: Registeer un Beispielsammlung zu den Forschungsexkursionen des Instituts für Volkskunde nach Oberfranken. Maschinenschriftliches Manuskript, München 1982.
!!!page: 101
!!!ENC: Anna Maria Matuszewska
!!!EEV: 2025/04/01
*-	*-
